X:263
T:Como poden per sas culpas
M:6/8
Q:3/8=90
K:C
V:1
FF | FED F2G | A2A2AA | cBc d2c/B/ | A2A2AG | FED F2G | A2A2AG | FED EDC |
D2D2 |: cc | cBG A2B | c2c2cd | cBG A2B | G2G2 :| AG | FED F2G |
A2A2AA | cBc d2c/B/ | A2A2AG | FED F2G | A2A2AG | FED EDC | D2D2 |]
V:2 octave=-1
z2 | cBc Adc | e2e2ff | edc B2c | c2c2ee | dcd Adc | e2e2ff | _BcdA2A |
A2d2 |: z2 | G2gf2c | e2c2g2 | e2fd2d | B2d2 :| z2 | dcd Adc |
e2e2ff | edc B2c | c2c2ee | dcd Adc | e2e2ff | _BcdA2A  | d2d2 |]
V:3 octave=-1
z2 | A3A3 | c2c2dd | G2G2G2 | F2F2z2 | A3A3 | c2c2dc | d2d2C2 |
F2A2 |: z2 | E2B d2d | c2c2cc | c2d ^F2F | G2G2 :| z2 | A3A3 |
c2c2dd | G2G2G2 | F2F2z2 | A3A3 | c2c2cd | d2d2A2 | F2A2 |]
V:4
z2 | D,3D,3 | A,,A,,A,,A,, D,D, | C,2A,, D,2E, | F,F,F,F, A,,A,, | D,3D,3 | A,,A,,A,,A,, D,D, | _B,,3A,,3 |
D,2D,2 |: z2 | C,2B,, D,2G, | C,C,E,E, A,,A,, | C,2D, D,2D, | G,,G,,G,,G,, :| z2 | D,3D,3 |
A,,A,,A,,A,, D,D, | C,2A,, D,2E, | F,F,F,F, A,,A,, | D,3D,3 | A,,A,,A,,A,, D,D, | _B,,3A,,3 | D,2D,2 |]






